X:2318
T:Fin as Oshin
T:(Version 1) 
C:Jack Kermode, Purt Mooar 
C:Traditional
O:Isle of Man
Z:Collected by Mona Douglas
N:Variation of KV317
M:6/4 
L:1/8 
Q:80 
K:D
B3 B/B/ c3 B/B/ B2B2|d4 f2 e2 e4|c3 B B6 (A/F/)|d>e c/c/ d/ B2 B2 B cd|
e< d c< B B6 AF|F2 EE B B3 (AF)|F2 (ED) F6 EF|D>E C3 E/ B,4||

